public/icons/product-privacy-needs.svg

<svg width="48" height="48" viewBox="0 0 48 48" fill="none" xmlns="http://www.w3.org/2000/svg">
<g clip-path="url(#clip0_573_1556)">
<path d="M24 31.0312C24.7766 31.0312 25.4062 30.4016 25.4062 29.625V26.8125C25.4062 26.0359 24.7766 25.4062 24 25.4062C23.2234 25.4062 22.5938 26.0359 22.5938 26.8125V29.625C22.5938 30.4016 23.2234 31.0312 24 31.0312ZM24 36.6562C28.6524 36.6562 32.4375 32.8712 32.4375 28.2188V21.1875C32.4375 20.4109 31.8079 19.7812 31.0312 19.7812H29.625V16.9688C29.625 13.8671 27.1016 11.3438 24 11.3438C20.8984 11.3438 18.375 13.8671 18.375 16.9688V19.7812H16.9688C16.1921 19.7812 15.5625 20.4109 15.5625 21.1875V28.2188C15.5625 32.8712 19.3476 36.6562 24 36.6562ZM21.1875 16.9688C21.1875 15.4179 22.4492 14.1562 24 14.1562C25.5508 14.1562 26.8125 15.4179 26.8125 16.9688V19.7812H21.1875V16.9688ZM18.375 22.5938H29.625V28.2188C29.625 31.3204 27.1016 33.8438 24 33.8438C20.8984 33.8438 18.375 31.3204 18.375 28.2188V22.5938ZM46.5938 0H1.40625C0.629625 0 0 0.629625 0 1.40625V46.5938C0 47.3704 0.629625 48 1.40625 48H46.5938C47.3704 48 48 47.3704 48 46.5938V1.40625C48 0.629625 47.3704 0 46.5938 0ZM14.0625 2.8125H33.9375V9.9375C33.9375 14.9909 36.9146 19.3621 41.207 21.3893C38.5247 23.1497 36.75 26.1839 36.75 29.625V39.4688H11.25V29.625C11.25 26.1839 9.47531 23.1497 6.79303 21.3893C11.0854 19.3621 14.0625 14.9909 14.0625 9.9375V2.8125ZM2.8125 2.8125H5.625V9.9375C5.625 10.7141 6.25462 11.3438 7.03125 11.3438C7.80788 11.3438 8.4375 10.7141 8.4375 9.9375V2.8125H11.25V9.9375C11.25 14.888 7.5765 18.9959 2.8125 19.6804V2.8125ZM2.8125 22.7352C6.018 23.3885 8.4375 26.2294 8.4375 29.625V39.4688H2.8125V22.7352ZM45.1875 45.1875H2.8125V42.2812H45.1875V45.1875ZM45.1875 39.4688H39.5625V29.625C39.5625 26.2295 41.982 23.3886 45.1875 22.7352V39.4688ZM45.1875 19.6804C40.4234 18.9959 36.75 14.888 36.75 9.9375V2.8125H39.5625V9.9375C39.5625 10.7141 40.1921 11.3438 40.9688 11.3438C41.7454 11.3438 42.375 10.7141 42.375 9.9375V2.8125H45.1875V19.6804Z" fill="#AE9F91"/>
</g>
<defs>
<clipPath id="clip0_573_1556">
<rect width="48" height="48" fill="white"/>
</clipPath>
</defs>
</svg>

<svg xmlns="http://www.w3.org/2000/svg" fill="none" viewBox="0 0 48 48"><g clip-path="url(#a)"><path fill="#ae9f91" d="M24 31.031c.777 0 1.406-.63 1.406-1.406v-2.812a1.406 1.406 0 0 0-2.812 0v2.812c0 .777.63 1.406 1.406 1.406m0 5.625c4.652 0 8.438-3.785 8.438-8.437v-7.032c0-.776-.63-1.406-1.407-1.406h-1.406V16.97A5.63 5.63 0 0 0 24 11.344a5.63 5.63 0 0 0-5.625 5.625v2.812h-1.406c-.777 0-1.407.63-1.407 1.407v7.03c0 4.653 3.786 8.438 8.438 8.438M21.188 16.97A2.816 2.816 0 0 1 24 14.156a2.816 2.816 0 0 1 2.813 2.813v2.812h-5.625zm-2.813 5.625h11.25v5.625A5.63 5.63 0 0 1 24 33.844a5.63 5.63 0 0 1-5.625-5.625zM46.594 0H1.406C.63 0 0 .63 0 1.406v45.188C0 47.37.63 48 1.406 48h45.188C47.37 48 48 47.37 48 46.594V1.406C48 .63 47.37 0 46.594 0M14.063 2.813h19.874v7.124c0 5.054 2.978 9.425 7.27 11.452a9.84 9.84 0 0 0-4.457 8.236v9.844h-25.5v-9.844a9.84 9.84 0 0 0-4.457-8.236c4.292-2.027 7.27-6.398 7.27-11.451zm-11.25 0h2.812v7.124a1.406 1.406 0 0 0 2.813 0V2.814h2.812v7.124c0 4.951-3.673 9.059-8.437 9.743zm0 19.922c3.205.654 5.624 3.494 5.624 6.89v9.844H2.814zm42.375 22.453H2.813V42.28h42.375zm0-5.72h-5.626v-9.843c0-3.395 2.42-6.236 5.626-6.89zm0-19.788c-4.765-.684-8.438-4.792-8.438-9.742V2.811h2.813v7.126a1.406 1.406 0 0 0 2.812 0V2.811h2.813z"/></g><defs><clipPath id="a"><path fill="#fff" d="M0 0h48v48H0z"/></clipPath></defs></svg>
